X:286
T: DE KUCKUK UP DEN TUNE SATT
N: E0880A
O: Europa, Mitteleuropa, Deutschland, Westfalen
R: Hochzeits -, Ehestands - Lied
M: 4/4
L: 1/16
K: F
A4 | G2F2E2F2G4A4 | F4z8
A4 | G2F2E2F2G4A4 | F4z8
C4 | F2G2A2B2c3=Bc3B | c4c3cc4
A4 | G2F2E2F2G4A4 | F4z8

